!!!COM: Bach, Johann Sebastian
!!!OTL: 9. Ermuntre dich, mein schwacher Geist
!!!ONM: No. 9
!!!OCL: Erk
!!!SCA: BWV 248.12
!!!YOE: Riemenschneider, Albert
!!!OPR: 371 Harmonized Chorales and 69 Chorale Melodies with Figured Bass
!!!OPT: Bach Chorale Harmonizations
!!!ONB: From the "Christmas Oratorio", Part II, No. 3
**harm	**root	**kern	**kern	**kern	**kern
!	!	!bass	!tenor	!alto	!sprno
*Iorgan	*Iorgan	*Iorgan	*Iorgan	*Iorgan	*Iorgan
*>[A,A,B]	*>[A,A,B]	*>[A,A,B]	*>[A,A,B]	*>[A,A,B]	*>[A,A,B]
*>norep[A,B]	*>norep[A,B]	*>norep[A,B]	*>norep[A,B]	*>norep[A,B]	*>norep[A,B]
*>A	*>A	*>A	*>A	*>A	*>A
*k[f#c#g#]	*k[f#c#g#]	*k[f#c#g#]	*k[f#c#g#]	*k[f#c#g#]	*k[f#c#g#]
*A:	*A:	*A:	*A:	*A:	*A:
*met(C)	*met(C)	*met(C)	*met(C)	*met(C)	*met(C)
*M4/4	*M4/4	*M4/4	*M4/4	*M4/4	*M4/4
*MM60	*MM60	*MM60	*MM60	*MM60	*MM60
I	4GG	8A	4c#	4e	4a
.	.	8G#	.	.	.
=1	=1	=1	=1	=1	=1
vi	4EE	4F#	8c#	4f#	4a
.	.	.	[8d	.	.
V7	4DD	4E	8d]	4g#	4b
.	.	.	8e	.	.
I	8GG	4A	8c#	8e	8cc#
V7d/V	8AA	.	8B	8f#	8dd#
Vb	4DD	8G#	4B	4g#	4ee
.	.	8A	.	.	.
=2	=2	=2	=2	=2	=2
Vc	4DD	4B	4B	8f#	4ee
.	.	.	.	8g#	.
V7/V	4AA	4BB	4B	4a	4dd#
V;	4DD;	4E;	4B;	4g#;	4ee;
Vb/vi	4BB	4E#	8c#	4g#	4cc#
.	.	.	8B	.	.
=3	=3	=3	=3	=3	=3
IVb	8CC	8F#	8A	4f#	4dd
viio7	8FF#	8G#	8B	.	.
I	8GG	8A	8c#	8e	4cc#
IV7	8CC	8D	8d	8f#	.
V7d	4DD	8d	4e	4g#	4b
.	.	8c#	.	.	.
I	4GG	8B	4e	[4a	4cc#
.	.	8A	.	.	.
=4	=4	=4	=4	=4	=4
V	2DD	4e	4.e	4a]	2b
.	.	4E	.	4g#	.
.	.	.	8d	.	.
I;	4GG;	4A;	4c#;	4e;	4a;
=:|!	=:|!	=:|!	=:|!	=:|!	=:|!
*>B	*>B	*>B	*>B	*>B	*>B
V	4DD	4E	8e	8g#	4b
.	.	.	8f#	8a	.
=5	=5	=5	=5	=5	=5
V	8DD	8e	8g#	4.b	4b
iib	8AA	8d	8f#	.	.
viiob/ii	4GG#	4c#	4e	.	4cc#
.	.	.	.	8a#	.
ii	4AA	4B	4f#	8b	4dd
.	.	.	.	8a#	.
viioD7/vi	4DD#	4E#	4g#	4b	4dd
=6	=6	=6	=6	=6	=6
!!linebreak: 2
vi	4EE	4F#	4c#	4b	8cc#
.	.	.	.	.	8b
V/ii	4EE	4F#	8f#	4a#	4cc#
.	.	.	8e	.	.
ii;	4AA;	4BB;	4d;	4f#;	4b;
vi	8EE	8F#	8A	8f#	4cc#
V7b/vi	8BB	8G#	8B	8e#	.
=7	=7	=7	=7	=7	=7
vib	4EE	4A	8c#	4f#	4cc#
.	.	.	8d	.	.
V7b/ii	4EE	4A#	8e	4f#	4cc#
.	.	.	8f#	.	.
ii	4AA	4B	4d	8f#	8dd
.	.	.	.	8g#	8ee
viioD7/iii	4AA#	4B#	4d#	8a	4ff#
.	.	.	.	8g#	.
=8	=8	=8	=8	=8	=8
iii	4BB	4c#	4c#	8g#	4ff#
.	.	.	.	8a	.
V7/vi	4BB	4C#	4c#	4b	4ee#
vi;	4EE;	4F#;	4c#;	4a;	4ff#;
V	4DD	8e	4e	4b	4gg#
.	.	8d	.	.	.
=9	=9	=9	=9	=9	=9
Ib	4GG	8c#	4e	8a	4aa
.	.	8B	.	8b	.
I	4GG	8A	4a	[4cc#	4cc#
.	.	8G#	.	.	.
IV7b	8CC	8F#	8A	8cc#]	4dd
viio7	8FF#	8G#	8B	[8b	.
vib	4EE	8A	4c#	8b]	4cc#
.	.	8F#	.	8a	.
=10	=10	=10	=10	=10	=10
V7b/V	2AA	8D#	8f#	2a	2b
.	.	8C#	8e	.	.
.	.	8D#	8f#	.	.
.	.	8BB	8d#	.	.
V;	4DD;	4E;	4e;	4g#;	4b;
Ib	4GG	4C#	[4e	8a	4ee
.	.	.	.	8g#	.
=11	=11	=11	=11	=11	=11
IV	4CC	4D	8e]	4f#	4ff#
.	.	.	8d	.	.
V7	4DD	4E	8d	4g#	4ee
.	.	.	8c#	.	.
IV7b	8CC	8F#	8c#	8a	4dd
viio	8FF#	8G#	8B	8b	.
I	4GG	4A	4A	4e	8cc#
.	.	.	.	.	8dd
=12	=12	=12	=12	=12	=12
ii7b	4AA	4D	8A	4f#	2b
.	.	.	16G#	.	.
.	.	.	16F#	.	.
V	4DD	4E	4G#	4e	.
I;	4GG;	4AA;	4c#;	4e;	4a;
==	==	==	==	==	==
*-	*-	*-	*-	*-	*-
!!!CDT: 1685/3//-1750/7/28
!!!OCY: Deutschland
!!!AGN: chorale
!!!AST: Baroque
!!!AIN: vox
!!!YOY: 1941
!!!PPP: New York; London
!!!PPR: G. Schirmer
!!!ENC: David Huron
!!!EED: David Huron
!!!YEN: United States of America
!!!YER: 1992
!!!YEC: Copyright 1992 David Huron
!!!YEM: Rights to all derivative electronic formats reserved.
!!!YER: March 20, 1996
!!!AMT: simple quadruple
!!!EEV: 1.1
!!chor2scor: -l 2 -s 0.6 -o %b.pmx
